build/img/content/advantages/wrenches.svg

<svg width="120" height="120" viewBox="0 0 120 120" fill="none" xmlns="http://www.w3.org/2000/svg">
<path d="M24.8026 37.1083L37.2072 24.5937L94.579 82.4742L82.1744 94.9887L24.8026 37.1083Z" fill="#F4EFED"/>
<path d="M68.1501 72.0942L47.5089 51.27C46.4737 50.2256 46.4737 48.533 47.5089 47.4886C48.5441 46.4442 50.2219 46.4442 51.2571 47.4886L71.8983 68.3128C72.9335 69.3572 72.9335 71.0498 71.8983 72.0942C70.8631 73.1386 69.1853 73.1386 68.1501 72.0942V72.0942Z" fill="#D6D1CF"/>
<path d="M24.8023 37.1082L27.5373 34.3489L84.9092 92.2293L82.1741 94.9886L24.8023 37.1082Z" fill="white"/>
<path d="M34.4728 27.3536L37.2078 24.5943L94.5796 82.4748L91.8446 85.2341L34.4728 27.3536Z" fill="#D6D1CF"/>
<path d="M82.1908 95.932C81.9529 95.932 81.715 95.8406 81.5338 95.6573L24.1533 37.7681C23.7904 37.402 23.7904 36.8086 24.1533 36.4425L36.5599 23.9259C36.9223 23.5598 37.5115 23.5598 37.8739 23.9259L95.2544 81.8152C95.6173 82.1812 95.6173 82.7747 95.2544 83.1408L82.8478 95.6573C82.6666 95.8402 82.4283 95.932 82.1908 95.932V95.932ZM26.1243 37.1053L82.1904 93.6684L93.283 82.4775L37.2169 25.9144L26.1243 37.1053Z" fill="#1D1D1B"/>
<path d="M40.6305 48.3065C40.3926 48.3065 40.1547 48.2151 39.9735 48.0318L35.9312 43.9537C35.5684 43.5876 35.5684 42.9942 35.9312 42.6281C36.2937 42.262 36.8828 42.262 37.2452 42.6281L41.2875 46.7062C41.6504 47.0723 41.6504 47.6657 41.2875 48.0318C41.1063 48.2151 40.8684 48.3065 40.6305 48.3065Z" fill="#1D1D1B"/>
<path d="M70.0245 73.815C69.0683 73.815 68.1697 73.4396 67.4936 72.7571L46.8519 51.9329C45.4562 50.5247 45.4562 48.2339 46.8519 46.8258C48.2477 45.4177 50.5188 45.4182 51.9141 46.8258L72.5553 67.65C73.2318 68.3321 73.604 69.2391 73.604 70.2033C73.604 71.1675 73.2318 72.075 72.5553 72.7571C71.8793 73.4391 70.9802 73.815 70.0245 73.815V73.815ZM49.3828 47.6438C48.9423 47.6438 48.5014 47.813 48.1659 48.1514C47.495 48.8283 47.495 49.9299 48.1659 50.6072L68.8071 71.4315C69.4567 72.0872 70.5908 72.0872 71.2404 71.4315C71.5656 71.1033 71.7445 70.6674 71.7445 70.2038C71.7445 69.7402 71.5656 69.3043 71.2404 68.9761L50.5992 48.1514C50.2646 47.813 49.8237 47.6438 49.3828 47.6438V47.6438Z" fill="#1D1D1B"/>
<path d="M103.174 117.302L90.7358 104.753L93.5956 93.9839L104.271 91.0987L116.709 103.647C118.711 96.7837 117.029 89.0587 111.661 83.6433C103.842 75.7547 91.1647 75.7547 83.3459 83.6433C75.5266 91.5318 75.5266 104.321 83.3459 112.209C88.7133 117.625 96.3704 119.322 103.174 117.302V117.302Z" fill="#F4EFED"/>
<path d="M83.3454 83.6428C82.884 84.1082 82.4519 84.5925 82.0449 85.0903C89.9102 78.5437 101.568 78.9796 108.925 86.4023C113.085 90.5986 115.021 96.1809 114.754 101.676L116.708 103.647C118.71 96.7832 117.028 89.0582 111.66 83.6428C103.842 75.7547 91.1647 75.7547 83.3454 83.6428Z" fill="#D6D1CF"/>
<path d="M83.3454 83.6428C83.8068 83.1774 84.2868 82.7414 84.7802 82.3308C78.2912 90.2658 78.7233 102.027 86.0807 109.449C90.2401 113.646 95.7734 115.599 101.22 115.33L103.174 117.301C96.3704 119.321 88.7133 117.624 83.3454 112.209C75.5266 104.321 75.5266 91.5314 83.3454 83.6428Z" fill="white"/>
<path d="M97.506 119.064C92.0252 119.064 86.6759 116.895 82.6884 112.872C74.5193 104.631 74.5193 91.2216 82.6884 82.98C90.8571 74.7384 104.149 74.7384 112.318 82.98C117.745 88.455 119.769 96.4758 117.6 103.912C117.507 104.229 117.256 104.474 116.938 104.556C116.62 104.637 116.284 104.544 116.052 104.31L103.993 92.1445L94.3544 94.7494L91.7724 104.474L103.831 116.639C104.063 116.873 104.155 117.213 104.074 117.533C103.994 117.854 103.751 118.108 103.436 118.201C101.481 118.781 99.4848 119.064 97.506 119.064V119.064ZM97.5032 78.6731C92.6139 78.6731 87.725 80.5505 84.0024 84.3056C76.5586 91.8159 76.5586 104.036 84.0024 111.546C88.5688 116.152 95.095 118.093 101.356 116.793L90.0789 105.416C89.8442 105.179 89.7522 104.834 89.8382 104.51L92.6975 93.7402C92.7835 93.4167 93.0339 93.1641 93.355 93.0769L104.03 90.1922C104.351 90.1059 104.693 90.1978 104.928 90.435L116.206 101.812C117.493 95.4956 115.57 88.9116 111.004 84.3047C107.282 80.5509 102.393 78.6731 97.5032 78.6731Z" fill="#1D1D1B"/>
<path d="M16.6467 2.69809L29.0849 15.2461L26.2251 26.0161L15.5497 28.9012L3.11204 16.3528C1.10994 23.2167 2.79191 30.9417 8.15979 36.3572C15.9791 44.2453 28.6561 44.2453 36.4749 36.3572C44.2937 28.4686 44.2937 15.6792 36.4749 7.79106C31.1074 2.37512 23.4503 0.678247 16.6467 2.69809V2.69809Z" fill="#F4EFED"/>
<path d="M36.4753 36.3572C36.9367 35.8917 37.3688 35.4075 37.7758 34.9097C29.9106 41.4562 18.253 41.0203 10.8951 33.5976C6.73616 29.4009 4.80004 23.8186 5.06581 18.3239L3.11204 16.3528C1.10995 23.2167 2.79191 30.9417 8.15979 36.3572C15.9791 44.2453 28.656 44.2453 36.4753 36.3572V36.3572Z" fill="white"/>
<path d="M36.4753 36.3572C36.014 36.8226 35.534 37.2586 35.0406 37.6692C41.5296 29.7342 41.0975 17.9733 33.7401 10.5501C29.5802 6.35435 24.0469 4.40107 18.6005 4.66919L16.6468 2.6981C23.4503 0.678257 31.1075 2.37513 36.4753 7.7906C44.2941 15.6792 44.2941 28.4686 36.4753 36.3572V36.3572Z" fill="#D6D1CF"/>
<path d="M22.3176 43.2009C16.9525 43.2009 11.5874 41.1407 7.5028 37.02C2.07545 31.5445 0.0515186 23.5242 2.22088 16.0884C2.31334 15.7711 2.56517 15.5264 2.88251 15.4443C3.20079 15.3628 3.53718 15.4561 3.76903 15.69L15.8276 27.8554L25.4664 25.2506L28.0483 15.5264L15.9898 3.3609C15.7579 3.12699 15.6654 2.78715 15.7463 2.46653C15.8271 2.1459 16.0697 1.89231 16.3847 1.79903C23.7537 -0.389099 31.705 1.65278 37.1323 7.12778C45.3015 15.3689 45.3015 28.7784 37.1323 37.02C33.0477 41.1407 27.6827 43.2009 22.3176 43.2009V43.2009ZM3.6157 18.1865C2.32821 24.5034 4.25085 31.0875 8.81678 35.6939C16.2611 43.2037 28.3736 43.2037 35.8179 35.6939C43.2617 28.1836 43.2617 15.9637 35.8179 8.4534C31.2519 3.84746 24.7267 1.90778 18.4644 3.20621L29.7419 14.5837C29.9765 14.8204 30.0685 15.1654 29.9826 15.4893L27.1232 26.2593C27.0373 26.5828 26.7868 26.8354 26.4658 26.9226L15.7904 29.8073C15.4694 29.8936 15.1279 29.8012 14.8928 29.5645L3.6157 18.1865Z" fill="#1D1D1B"/>
<path d="M82.601 24.5811L95.0056 37.0956L37.6338 94.9761L25.2292 82.4615L82.601 24.5811Z" fill="#F4EFED"/>
<path d="M47.9224 68.3128L68.5636 47.4886C69.5988 46.4442 71.2766 46.4442 72.3118 47.4886C73.347 48.533 73.347 50.2256 72.3118 51.27L51.6706 72.0942C50.6354 73.1386 48.9576 73.1386 47.9224 72.0942C46.8872 71.0498 46.8872 69.3572 47.9224 68.3128V68.3128Z" fill="#D6D1CF"/>
<path d="M25.2168 82.4738L82.5886 24.5933L85.3236 27.3526L27.9518 85.233L25.2168 82.4738Z" fill="white"/>
<path d="M34.8856 92.2305L92.2574 34.35L94.9924 37.1093L37.6206 94.9898L34.8856 92.2305Z" fill="#D6D1CF"/>
<path d="M37.6299 95.932C37.392 95.932 37.1542 95.8406 36.973 95.6573L24.5664 83.1408C24.2035 82.7747 24.2035 82.1812 24.5664 81.8152L81.9469 23.9259C82.3093 23.5598 82.8985 23.5598 83.2609 23.9259L95.6675 36.4425C96.0303 36.8086 96.0303 37.402 95.6675 37.7681L38.2869 95.6573C38.1057 95.8402 37.8678 95.932 37.6299 95.932ZM26.5378 82.478L37.6304 93.6689L93.6965 37.1053L82.6039 25.9144L26.5378 82.478Z" fill="#1D1D1B"/>
<path d="M49.7963 73.8151C48.84 73.8151 47.941 73.4396 47.2649 72.7571C46.5889 72.0751 46.2167 71.168 46.2167 70.2038C46.2167 69.2396 46.5889 68.3326 47.2654 67.6505L67.9066 46.8263C69.3019 45.4186 71.573 45.4182 72.9688 46.8263C74.3645 48.2344 74.3645 50.5252 72.9688 51.9333L52.3276 72.7576C51.6515 73.4391 50.7525 73.8151 49.7963 73.8151ZM70.438 47.6438C69.997 47.6438 69.5565 47.813 69.2206 48.1515L48.5794 68.9757C48.2541 69.3033 48.0753 69.7393 48.0753 70.2033C48.0753 70.6674 48.2541 71.1029 48.5794 71.431C49.2294 72.0873 50.3631 72.0873 51.0131 71.431L71.6548 50.6068C72.3257 49.9299 72.3257 48.8283 71.6548 48.151C71.3194 47.813 70.8784 47.6438 70.438 47.6438V47.6438ZM47.9224 68.3129H47.927H47.9224Z" fill="#1D1D1B"/>
<path d="M3.11204 103.647L15.5497 91.0987L26.2251 93.9839L29.0849 104.753L16.6467 117.302C23.4499 119.322 31.107 117.625 36.4749 112.209C44.2937 104.321 44.2937 91.5314 36.4749 83.6433C28.6556 75.7547 15.9786 75.7547 8.15979 83.6433C2.79191 89.0583 1.10994 96.7833 3.11204 103.647V103.647Z" fill="#F4EFED"/>
<path d="M36.4753 83.6428C36.014 83.1774 35.534 82.7414 35.0406 82.3308C41.5296 90.2658 41.0975 102.027 33.7401 109.449C29.5807 113.646 24.0474 115.599 18.601 115.33L16.6472 117.301C23.4503 119.321 31.1075 117.624 36.4753 112.209C44.2942 104.321 44.2942 91.5314 36.4753 83.6428Z" fill="#D6D1CF"/>
<path d="M36.4753 83.6428C36.9367 84.1082 37.3688 84.5925 37.7758 85.0903C29.9106 78.5437 18.253 78.9796 10.8951 86.4023C6.7357 90.5986 4.79958 96.1809 5.06581 101.676L3.11204 103.647C1.10995 96.7832 2.79191 89.0582 8.15979 83.6428C15.9791 75.7547 28.656 75.7547 36.4753 83.6428V83.6428Z" fill="white"/>
<path d="M22.3148 119.064C20.3354 119.064 18.3399 118.782 16.3847 118.201C16.0701 118.108 15.8276 117.854 15.7463 117.533C15.6654 117.213 15.7579 116.873 15.9898 116.639L28.0483 104.474L25.4664 94.7494L15.8276 92.1445L3.76903 104.31C3.53765 104.544 3.20079 104.637 2.88252 104.556C2.56471 104.474 2.31334 104.229 2.22088 103.912C0.0519861 96.4758 2.07592 88.455 7.50281 82.98C15.6715 74.7384 28.9632 74.7384 37.1323 82.98C45.3015 91.2211 45.3015 104.631 37.1323 112.872C33.1453 116.895 27.7951 119.064 22.3148 119.064V119.064ZM18.4644 116.794C24.7253 118.091 31.2515 116.153 35.8179 111.547C43.2617 104.036 43.2617 91.8164 35.8179 84.3061C28.3736 76.7962 16.2611 76.7962 8.81678 84.3061C4.25086 88.913 2.32821 95.497 3.61571 101.814L14.8932 90.4364C15.1279 90.1992 15.4703 90.1078 15.7909 90.1936L26.4663 93.0783C26.7869 93.165 27.0373 93.4176 27.1237 93.7416L29.983 104.512C30.069 104.835 29.977 105.18 29.7424 105.417L18.4644 116.794Z" fill="#1D1D1B"/>
<path d="M116.709 16.3528L104.271 28.9012L93.5956 26.0161L90.7358 15.2461L103.174 2.6981C96.3709 0.678257 88.7138 2.37513 83.3459 7.7906C75.5266 15.6792 75.5266 28.4686 83.3459 36.3567C91.1651 44.2448 103.842 44.2448 111.661 36.3567C117.029 30.9417 118.711 23.2167 116.709 16.3528V16.3528Z" fill="#F4EFED"/>
<path d="M83.3454 36.3572C83.8068 36.8226 84.2868 37.2586 84.7802 37.6692C78.2912 29.7342 78.7233 17.9733 86.0807 10.5501C90.2401 6.35388 95.7734 4.4006 101.22 4.66919L103.174 2.6981C96.3704 0.678257 88.7133 2.37513 83.3454 7.7906C75.5266 15.6792 75.5266 28.4686 83.3454 36.3572V36.3572Z" fill="white"/>
<path d="M83.3454 36.3572C82.884 35.8917 82.4519 35.4075 82.0449 34.9097C89.9102 41.4562 101.568 41.0203 108.925 33.5977C113.085 29.4014 115.021 23.8191 114.754 18.3244L116.708 16.3533C118.71 23.2167 117.028 30.9417 111.66 36.3572C103.842 44.2453 91.1647 44.2453 83.3454 36.3572Z" fill="#D6D1CF"/>
<path d="M97.5032 43.2009C92.1381 43.2009 86.773 41.1407 82.6884 37.0199C74.5193 28.7789 74.5193 15.3693 82.6884 7.12776C88.1153 1.65229 96.0661 -0.39005 103.436 1.79901C103.751 1.89229 103.993 2.14636 104.074 2.46651C104.155 2.78714 104.063 3.12698 103.831 3.36089L91.7724 15.5264L94.3544 25.2506L103.993 27.8554L116.052 15.6899C116.284 15.456 116.621 15.3632 116.938 15.4443C117.256 15.5259 117.507 15.7706 117.6 16.0884C119.769 23.5242 117.745 31.5449 112.318 37.0199C108.233 41.1407 102.868 43.2009 97.5032 43.2009ZM97.5064 2.81058C92.5112 2.81058 87.6368 4.78729 84.0029 8.45339C76.559 15.9637 76.559 28.1835 84.0029 35.6939C91.4472 43.2037 103.56 43.2037 111.004 35.6939C115.57 31.087 117.493 24.5029 116.205 18.186L104.928 29.564C104.693 29.8012 104.35 29.8921 104.03 29.8068L93.3545 26.9221C93.0339 26.8354 92.7835 26.5828 92.6971 26.2589L89.8377 15.4889C89.7518 15.1654 89.8438 14.8199 90.0784 14.5832L101.356 3.2062C100.078 2.94089 98.7879 2.81058 97.5064 2.81058V2.81058Z" fill="#1D1D1B"/>
</svg>

<svg width="120" height="120" fill="none" xmlns="http://www.w3.org/2000/svg"><path d="M24.803 37.108l12.404-12.514 57.372 57.88L82.174 94.99 24.803 37.11z" fill="#F4EFED"/><path d="M68.15 72.094L47.51 51.27a2.69 2.69 0 010-3.781 2.634 2.634 0 013.748 0l20.641 20.824a2.69 2.69 0 010 3.781 2.634 2.634 0 01-3.748 0z" fill="#D6D1CF"/><path d="M24.802 37.108l2.735-2.76L84.91 92.23l-2.735 2.76-57.372-57.88z" fill="#fff"/><path d="M34.473 27.354l2.735-2.76 57.372 57.88-2.735 2.76-57.372-57.88z" fill="#D6D1CF"/><path d="M82.19 95.932a.92.92 0 01-.656-.275l-57.38-57.889a.943.943 0 010-1.325L36.56 23.926a.923.923 0 011.314 0l57.38 57.89a.943.943 0 010 1.325L82.848 95.657a.923.923 0 01-.657.275zM26.125 37.105L82.19 93.668l11.093-11.19-56.066-56.564-11.093 11.191z" fill="#1D1D1B"/><path d="M40.63 48.306a.92.92 0 01-.657-.274l-4.042-4.078a.943.943 0 010-1.326.923.923 0 011.314 0l4.043 4.078a.943.943 0 010 1.326.92.92 0 01-.657.275zm29.395 25.509a3.538 3.538 0 01-2.531-1.058L46.852 51.933a3.638 3.638 0 010-5.107 3.562 3.562 0 015.062 0L72.555 67.65a3.602 3.602 0 011.049 2.553 3.6 3.6 0 01-1.049 2.554 3.54 3.54 0 01-2.53 1.058zM49.383 47.644c-.44 0-.882.169-1.217.507a1.75 1.75 0 000 2.456l20.641 20.825c.65.655 1.784.655 2.433 0 .326-.329.505-.765.505-1.228 0-.464-.18-.9-.505-1.228L50.6 48.151a1.705 1.705 0 00-1.217-.507z" fill="#1D1D1B"/><path d="M103.174 117.302l-12.438-12.549 2.86-10.77L104.27 91.1l12.438 12.548c2.002-6.863.32-14.588-5.048-20.004a19.897 19.897 0 00-28.315 0c-7.82 7.889-7.82 20.678 0 28.566a19.893 19.893 0 0019.828 5.093z" fill="#F4EFED"/><path d="M83.345 83.643c-.461.465-.893.95-1.3 1.447a19.893 19.893 0 0126.88 1.312c4.16 4.197 6.096 9.779 5.829 15.274l1.954 1.971c2.002-6.864.32-14.589-5.048-20.004a19.897 19.897 0 00-28.315 0z" fill="#D6D1CF"/><path d="M83.345 83.643c.462-.466.942-.902 1.435-1.312-6.489 7.935-6.057 19.696 1.3 27.118a19.856 19.856 0 0015.14 5.881l1.954 1.971a19.895 19.895 0 01-19.829-5.092c-7.818-7.888-7.818-20.678 0-28.566z" fill="#fff"/><path d="M97.506 119.064c-5.48 0-10.83-2.169-14.818-6.192-8.169-8.241-8.169-21.65 0-29.892 8.17-8.242 21.461-8.242 29.63 0 5.427 5.475 7.451 13.496 5.282 20.932a.924.924 0 01-1.548.398l-12.059-12.166-9.639 2.605-2.582 9.725 12.059 12.165a.942.942 0 01-.395 1.562c-1.955.58-3.951.863-5.93.863zm-.003-40.39a18.95 18.95 0 00-13.5 5.632c-7.444 7.51-7.444 19.73 0 27.24a18.985 18.985 0 0017.353 5.247l-11.277-11.377a.944.944 0 01-.24-.906l2.859-10.77a.935.935 0 01.657-.663l10.675-2.885a.924.924 0 01.898.243l11.278 11.377c1.287-6.316-.636-12.9-5.202-17.507a18.952 18.952 0 00-13.5-5.632z" fill="#1D1D1B"/><path d="M16.647 2.698l12.438 12.548-2.86 10.77-10.675 2.885L3.112 16.353c-2.002 6.864-.32 14.589 5.048 20.004a19.898 19.898 0 0028.315 0c7.819-7.888 7.819-20.678 0-28.566a19.893 19.893 0 00-19.828-5.093z" fill="#F4EFED"/><path d="M36.475 36.357c.462-.465.894-.95 1.3-1.447a19.894 19.894 0 01-26.88-1.312C6.736 29.4 4.8 23.818 5.065 18.324l-1.953-1.971c-2.002 6.864-.32 14.589 5.048 20.004a19.898 19.898 0 0028.315 0z" fill="#fff"/><path d="M36.475 36.357c-.461.466-.941.902-1.434 1.312 6.489-7.935 6.056-19.696-1.3-27.119A19.866 19.866 0 0018.6 4.67l-1.954-1.972a19.895 19.895 0 0119.828 5.093c7.82 7.888 7.82 20.678 0 28.566z" fill="#D6D1CF"/><path d="M22.318 43.2c-5.366 0-10.73-2.06-14.815-6.18C2.075 31.544.052 23.524 2.22 16.088a.924.924 0 011.548-.398l12.059 12.165 9.638-2.604 2.582-9.725L15.99 3.361a.943.943 0 01-.244-.894.932.932 0 01.639-.668 20.83 20.83 0 0120.747 5.329c8.17 8.24 8.17 21.65 0 29.892a20.792 20.792 0 01-14.814 6.18zM3.616 18.187c-1.288 6.317.635 12.901 5.2 17.508 7.445 7.51 19.558 7.51 27.002 0 7.444-7.51 7.444-19.73 0-27.24a18.987 18.987 0 00-17.354-5.248l11.278 11.378a.943.943 0 01.24.905l-2.859 10.77a.935.935 0 01-.657.664L15.79 29.807a.925.925 0 01-.897-.242L3.616 18.185z" fill="#1D1D1B"/><path d="M82.601 24.581l12.405 12.515-57.372 57.88-12.405-12.514 57.372-57.88z" fill="#F4EFED"/><path d="M47.922 68.313l20.642-20.824a2.634 2.634 0 013.748 0 2.69 2.69 0 010 3.781L51.67 72.094a2.634 2.634 0 01-3.749 0 2.69 2.69 0 010-3.781z" fill="#D6D1CF"/><path d="M25.217 82.474l57.372-57.88 2.735 2.759-57.372 57.88-2.735-2.76z" fill="#fff"/><path d="M34.886 92.23l57.371-57.88 2.735 2.76-57.371 57.88-2.735-2.76z" fill="#D6D1CF"/><path d="M37.63 95.932a.92.92 0 01-.657-.275L24.566 83.141a.943.943 0 010-1.326l57.38-57.89a.923.923 0 011.315 0l12.407 12.518a.943.943 0 010 1.325l-57.381 57.89a.922.922 0 01-.657.274zM26.538 82.478l11.092 11.19 56.066-56.563-11.092-11.19-56.066 56.563z" fill="#1D1D1B"/><path d="M49.796 73.815a3.54 3.54 0 01-2.531-1.058 3.604 3.604 0 01-1.048-2.553c0-.964.372-1.871 1.048-2.553l20.642-20.825a3.562 3.562 0 015.062 0 3.638 3.638 0 010 5.107L52.328 72.758a3.543 3.543 0 01-2.532 1.057zm20.642-26.171c-.441 0-.882.169-1.217.508L48.579 68.975a1.73 1.73 0 00-.504 1.227c0 .464.18.9.504 1.228.65.656 1.784.656 2.434 0l20.642-20.824a1.75 1.75 0 000-2.456 1.71 1.71 0 00-1.217-.507zM47.922 68.313h.005-.005z" fill="#1D1D1B"/><path d="M3.112 103.647L15.55 91.099l10.675 2.885 2.86 10.769-12.438 12.549a19.893 19.893 0 0019.828-5.093c7.819-7.888 7.819-20.678 0-28.566a19.897 19.897 0 00-28.315 0c-5.368 5.415-7.05 13.14-5.048 20.004z" fill="#F4EFED"/><path d="M36.475 83.643a20.299 20.299 0 00-1.434-1.312c6.489 7.935 6.056 19.696-1.3 27.118a19.856 19.856 0 01-15.14 5.881l-1.954 1.971a19.895 19.895 0 0019.828-5.092c7.82-7.888 7.82-20.678 0-28.566z" fill="#D6D1CF"/><path d="M36.475 83.643c.462.465.894.95 1.3 1.447a19.893 19.893 0 00-26.88 1.312c-4.16 4.197-6.095 9.779-5.83 15.274l-1.953 1.971c-2.002-6.864-.32-14.589 5.048-20.004a19.898 19.898 0 0128.315 0z" fill="#fff"/><path d="M22.315 119.064c-1.98 0-3.975-.282-5.93-.863a.943.943 0 01-.395-1.562l12.058-12.165-2.582-9.725-9.638-2.605L3.769 104.31a.925.925 0 01-1.548-.398C.052 96.476 2.076 88.455 7.503 82.98c8.168-8.242 21.46-8.242 29.63 0 8.168 8.241 8.168 21.651 0 29.892a20.852 20.852 0 01-14.818 6.192zm-3.85-2.27a18.992 18.992 0 0017.353-5.247c7.444-7.511 7.444-19.73 0-27.24-7.444-7.51-19.557-7.51-27.001 0-4.566 4.606-6.489 11.19-5.201 17.507l11.277-11.378a.925.925 0 01.898-.242l10.675 2.884c.32.087.571.34.658.664l2.859 10.77a.943.943 0 01-.24.905l-11.279 11.377z" fill="#1D1D1B"/><path d="M116.709 16.353L104.271 28.9l-10.675-2.885-2.86-10.77 12.438-12.548A19.894 19.894 0 0083.346 7.79c-7.82 7.888-7.82 20.678 0 28.566a19.898 19.898 0 0028.315 0c5.368-5.415 7.05-13.14 5.048-20.004z" fill="#F4EFED"/><path d="M83.345 36.357c.462.466.942.902 1.435 1.312-6.489-7.935-6.057-19.696 1.3-27.119a19.86 19.86 0 0115.14-5.88l1.954-1.972a19.895 19.895 0 00-19.829 5.093c-7.818 7.888-7.818 20.678 0 28.566z" fill="#fff"/><path d="M83.345 36.357c-.461-.465-.893-.95-1.3-1.447a19.893 19.893 0 0026.88-1.312c4.16-4.197 6.096-9.779 5.829-15.274l1.954-1.97c2.002 6.863.32 14.588-5.048 20.003a19.897 19.897 0 01-28.315 0z" fill="#D6D1CF"/><path d="M97.503 43.2c-5.365 0-10.73-2.06-14.815-6.18-8.169-8.241-8.169-21.65 0-29.892a20.827 20.827 0 0120.748-5.329.942.942 0 01.395 1.562L91.772 15.526l2.582 9.725 9.639 2.604 12.059-12.165a.925.925 0 011.548.398c2.169 7.436.145 15.457-5.282 20.932a20.794 20.794 0 01-14.815 6.18zm.003-40.39c-4.995 0-9.87 1.977-13.503 5.643-7.444 7.51-7.444 19.73 0 27.24 7.444 7.51 19.557 7.51 27.001 0 4.566-4.606 6.489-11.19 5.201-17.507l-11.277 11.378a.927.927 0 01-.898.243l-10.675-2.885a.935.935 0 01-.658-.663l-2.86-10.77a.944.944 0 01.241-.906l11.278-11.377a18.938 18.938 0 00-3.85-.395z" fill="#1D1D1B"/></svg>
